X: 1
T: the Sailor On the Rock
O: trad. Irish
R: reel
Z: 2020 John Chambers <jc:trillian.mit.edu>
S: https://www.facebook.com/groups/Fiddletuneoftheday/ 2020-10-30
S: https://www.facebook.com/groups/Fiddletuneoftheday/photos/
S: https://thesession.org/tunes/765 #2
N: 2nd part shared with the Boyne Hunt
M: C|
L: 1/8
K: D
|: defd BAFB | AD (3FED FAAB | defd BAFB |1 ABdf efdB :|2 ABdf efd2 ||
|: faag fedf | gfga be~e2 |1 faag fedB | ABdf efd2 :|2 fgfe d2dB | ABdf efdB |]
